X: 164
T: Fraszka muzyczna – Tempo Alla Mazurek
C: Józef Stefani
L: 1/4
M: 3/4
N: Derived from pl-wtm--r-1350--002_stefani-jozef--fraszka-muzyczna-tempo-alla-mazurek.krn
Q: "Tempo Alla Mazurek"
%%staves {1 2}
V: 1 clef=treble
V: 2 clef=treble
K: F
[V:1] e/^d/ee | 
[V:2] [GC][GC][GC] | 
[V:1] [g2e2][ec] | 
[V:2] [G2C2][GC] | 
[V:1] d/c/de | 
[V:2] [GFB,][GFB,][GFB,] | 
[V:1] c2g | 
[V:2] [G2E2C2][GEC] | 
[V:1] e/^d/ee | 
[V:2] [GC][GC][GC] | 
[V:1] [g2e2][ec] | 
[V:2] [G2C2][GC] | 
[V:1] d/c/de | 
[V:2] [GFB,][GFB,][GFB,] | 
[V:1] czz ]|:  
[V:2] [GEC]zz ]|:  
[V:1] d/e/dg | 
[V:2] D/E/DG | 
[V:1] d/e/dg | 
[V:2] D/E/DG | 
[V:1] d/e/d^f | 
[V:2] D/E/D^F | 
[V:1] g/^f/gd | 
[V:2] G/^F/GD | 
[V:1] d/e/dg | 
[V:2] D/E/DG | 
[V:1] d/e/dg | 
[V:2] D/E/DG | 
[V:1] d/e/d^f | 
[V:2] D/E/D^F | 
[V:1] g/^f/g/=f/e/d/ | 
[V:2] G/^F/G/=F/E/D/ | 
[V:1] e/^d/ee | 
[V:2] [GC][GC][GC] | 
[V:1] [g2e2][ec] | 
[V:2] [G2C2][GC] | 
[V:1] d/c/de | 
[V:2] [GFB,][GFB,][GFB,] | 
[V:1] c2g | 
[V:2] [G2E2C2][GEC] | 
[V:1] e/^d/ee | 
[V:2] [GC][GC][GC] | 
[V:1] [g2e2][ec] | 
[V:2] [G2C2][GC] | 
[V:1] d/c/de | 
[V:2] [GFB,][GFB,][GFB,] | 
[V:1] czz :|]  
[V:2] [GEC]zz :|]  

